img/icon-arr4.svg

<svg width="28" height="16" viewBox="0 0 28 16" fill="none" xmlns="http://www.w3.org/2000/svg">
<path d="M27.0329 14.0405C27.0661 14.146 27.079 14.2091 27.0806 14.2723C27.1109 15.492 27.1039 15.5091 25.8458 15.0298C24.3572 14.4625 22.8658 13.8971 21.4053 13.2644C20.3235 12.7959 19.2997 12.1993 18.2299 11.7017C17.5501 11.3855 16.829 11.156 16.1341 10.8697C14.2078 10.0762 12.2857 9.27229 10.3611 8.47453C9.69063 8.19662 9.01948 7.92 8.3439 7.65451C8.22158 7.60647 8.07629 7.61528 7.9415 7.59783C7.98018 7.739 8.00117 7.88721 8.06019 8.02026C8.61005 9.25919 9.1957 10.485 9.69689 11.7411C9.80127 12.0028 9.70537 12.4637 9.51473 12.6721C9.24552 12.9666 8.80427 13.032 8.45283 12.6439C7.96326 12.1032 7.38726 11.6136 6.99919 11.0128C5.1421 8.13731 3.33843 5.23024 1.50908 2.33829C1.21711 1.87671 0.87898 1.44191 0.588141 0.979706C0.515251 0.863779 0.474362 0.615164 0.539773 0.559308C0.650933 0.464336 0.863404 0.427118 1.02417 0.447025C3.06835 0.699838 5.11048 0.970233 7.15389 1.22981C8.454 1.39499 9.75566 1.54749 11.0557 1.71334C11.1626 1.72696 11.2777 1.7812 11.3632 1.84775C11.7764 2.16891 12.1882 2.49265 12.584 2.83343C12.7184 2.94919 12.8048 3.11731 12.9131 3.26149C12.7312 3.334 12.5557 3.44723 12.3662 3.47208C11.5018 3.58538 10.6323 3.66583 9.76762 3.77727C9.57259 3.80242 9.31651 3.8533 9.22054 3.98403C9.11353 4.12979 8.9265 4.36003 9.36527 4.53641C11.5478 5.41367 13.7185 6.32177 15.8735 7.26309C17.9102 8.15271 19.9243 9.09239 21.9441 10.0192C23.1242 10.5606 24.3204 11.0758 25.4634 11.6855C26.376 12.1724 26.9555 12.9438 27.0329 14.0405ZM17.1234 10.4277C17.6327 10.6588 18.1404 10.8935 18.6531 11.1167C18.7282 11.1494 18.8278 11.1274 18.916 11.1306C18.8942 11.0979 18.8655 11.0676 18.8516 11.032C18.7002 10.645 18.4099 10.2458 18.4349 9.87237C18.4717 9.32168 18.1203 9.11563 17.7761 8.91468C17.2966 8.63479 16.767 8.43577 16.2539 8.21306C16.1539 8.16966 15.959 8.13017 15.9335 8.16851C15.8704 8.26325 15.8401 8.41276 15.8682 8.5248C15.9412 8.81629 16.1216 9.09787 16.1343 9.38619C16.1592 9.95442 16.4217 10.2758 17.1234 10.4277ZM15.0677 8.74202C14.8911 8.31646 14.7939 7.83129 14.5128 7.48391C14.2855 7.20301 13.8453 7.06925 13.4823 6.9076C13.3001 6.82646 13.0795 6.8285 12.8762 6.79294C12.9034 6.97812 12.916 7.16655 12.9617 7.34773C13.0092 7.53589 13.1099 7.71319 13.1506 7.90203C13.3123 8.65119 13.494 9.35854 14.494 9.45153C14.7648 9.47665 15.0241 9.64525 15.2887 9.74805C15.2321 9.44091 15.1754 9.13384 15.0677 8.74202ZM19.8402 11.2975C20.3384 11.7148 20.8333 12.136 21.3379 12.5461C21.4452 12.6333 21.5875 12.68 21.7137 12.7453C21.7052 12.5825 21.7295 12.4105 21.6808 12.259C21.6005 12.0095 21.3963 11.7767 21.3793 11.5307C21.3163 10.6234 20.6344 10.2096 19.9587 9.78754C19.8333 9.70915 19.6527 9.71499 19.4974 9.68192C19.4992 9.84294 19.4737 10.009 19.508 10.1638C19.5861 10.5164 19.6936 10.8636 19.8402 11.2975ZM10.0002 6.46213C9.90454 6.17629 9.88267 5.82809 9.69409 5.62103C9.47425 5.37971 9.10872 5.26193 8.80638 5.09057C8.8205 5.32883 8.82828 5.56757 8.85044 5.80536C8.87384 6.05688 8.92064 6.30693 8.93974 6.55854C8.97335 6.9997 9.73101 7.79984 10.0498 7.65102C10.5635 7.4112 9.98172 6.99852 10.0889 6.66825C10.0997 6.63516 10.0649 6.58756 10.0002 6.46213ZM23.2336 11.5684C23.013 11.3911 22.8063 11.1923 22.5663 11.0453C22.4402 10.9682 22.2559 10.9817 22.0979 10.9543C22.1293 11.0934 22.1489 11.2358 22.1942 11.3708C22.3116 11.7207 22.4999 12.0602 22.5517 12.4165C22.6567 13.1392 23.29 13.2309 23.7956 13.478C23.8184 13.4892 24.0154 13.2876 23.9941 13.2359C23.7739 12.7023 23.5254 12.1791 23.2336 11.5684ZM25.4156 12.5077C25.218 12.4075 25.0211 12.3062 24.8229 12.2075C24.6983 12.1455 24.5715 12.0875 24.4457 12.0277C24.465 12.1937 24.4385 12.3815 24.5122 12.5215C24.7276 12.9302 24.9352 13.3587 25.2386 13.7037C25.4563 13.9514 25.8181 14.0863 26.128 14.249C26.1782 14.2753 26.3507 14.2016 26.3679 14.1445C26.4743 13.7919 25.9274 12.7438 25.4156 12.5077ZM11.4742 7.56634C11.4584 8.05812 11.6626 8.40451 12.1809 8.53361C12.2889 8.56047 12.404 8.55909 12.5159 8.57078C12.502 8.46956 12.4988 8.36589 12.4722 8.2677C12.343 7.79116 12.1818 7.32069 12.0814 6.83932C11.9764 6.33595 11.6641 6.08294 11.1715 5.99916C11.0706 5.98197 10.9631 6.00561 10.8586 6.01048C10.8899 6.11356 10.9141 6.21922 10.9537 6.31933C11.1075 6.70776 11.2663 7.09444 11.4742 7.56634ZM7.87354 5.04116C7.72384 5.04955 7.47897 5.00587 7.43963 5.07468C7.16424 5.55695 7.40507 6.56483 7.85325 6.9091C7.90872 6.95178 8.02898 6.97346 8.08294 6.94406C8.14474 6.91041 8.2083 6.80362 8.19823 6.73761C8.11668 6.19914 8.01812 5.66277 7.87354 5.04116ZM4.09424 5.65988C4.14104 5.73735 4.17263 5.83059 4.23761 5.88899C4.37737 6.01439 4.53437 6.12186 4.68432 6.23666C4.62053 6.0735 4.58741 5.88865 4.48392 5.75352C4.39042 5.63137 4.37006 5.18082 4.09424 5.65988ZM7.90193 3.55927C7.94788 3.66611 7.96663 3.81209 8.04905 3.86657C8.10672 3.90465 8.25144 3.81758 8.35728 3.78643C8.25135 3.72302 8.14542 3.65961 7.90193 3.55927Z" fill="white"/>
</svg>

<svg width="28" height="16" fill="none" xmlns="http://www.w3.org/2000/svg"><path d="M27.033 14.04a.818.818 0 0 1 .048.232c.03 1.22.023 1.237-1.235.758-1.489-.567-2.98-1.133-4.44-1.766-1.082-.468-2.106-1.065-3.176-1.562-.68-.316-1.401-.546-2.096-.832-1.926-.794-3.848-1.598-5.773-2.395-.67-.278-1.342-.555-2.017-.82-.122-.049-.268-.04-.402-.057.038.141.06.29.118.422.55 1.24 1.136 2.465 1.637 3.721.104.262.008.723-.182.931-.27.295-.71.36-1.062-.028-.49-.54-1.066-1.03-1.454-1.631C5.142 8.137 3.34 5.23 1.51 2.338 1.217 1.877.88 1.442.59.98.514.864.473.615.538.56.652.463.864.426 1.025.446 3.068.7 5.11.97 7.154 1.23c1.3.165 2.602.317 3.902.483a.668.668 0 0 1 .307.135c.413.32.825.645 1.221.985.134.116.22.284.33.428-.183.073-.358.186-.548.211-.864.113-1.734.194-2.598.305-.195.025-.451.076-.547.207-.107.146-.294.376.144.552 2.183.878 4.354 1.786 6.508 2.727 2.037.89 4.051 1.83 6.071 2.756 1.18.542 2.376 1.057 3.52 1.666.912.487 1.492 1.259 1.569 2.355Zm-9.91-3.612c.51.23 1.017.465 1.53.689.075.032.175.01.263.014-.022-.033-.05-.063-.064-.099-.152-.387-.442-.786-.417-1.16.037-.55-.315-.756-.659-.957-.48-.28-1.009-.48-1.522-.702-.1-.043-.295-.083-.32-.044a.489.489 0 0 0-.066.356c.073.291.254.573.266.861.025.568.288.89.99 1.042Zm-2.055-1.686c-.177-.426-.274-.91-.555-1.258-.227-.281-.668-.415-1.03-.576-.183-.082-.404-.08-.607-.115.027.185.04.374.086.555.047.188.148.365.189.554.161.75.343 1.457 1.343 1.55.27.025.53.193.795.296a11.096 11.096 0 0 0-.221-1.006Zm4.772 2.555c.498.418.993.839 1.498 1.25.107.086.25.133.376.198-.009-.162.016-.334-.033-.486-.08-.25-.285-.482-.302-.728-.063-.908-.745-1.321-1.42-1.743-.126-.079-.306-.073-.462-.106.002.16-.023.327.011.482.078.352.186.7.332 1.133ZM10 6.462c-.095-.286-.117-.634-.306-.841-.22-.241-.585-.36-.888-.53.014.238.022.477.044.714.024.252.07.502.09.754.033.44.791 1.24 1.11 1.092.513-.24-.068-.652.039-.983.01-.033-.024-.08-.089-.206Zm13.234 5.106c-.221-.177-.428-.376-.668-.523-.126-.077-.31-.063-.468-.09.031.138.05.28.096.416.118.35.306.69.358 1.045.105.723.738.815 1.244 1.062.022.011.22-.19.198-.242a33.723 33.723 0 0 0-.76-1.668Zm2.182.94c-.198-.1-.395-.202-.593-.3-.125-.063-.252-.12-.377-.18.019.166-.008.354.066.493.216.41.423.838.727 1.183.217.247.58.382.889.545.05.026.223-.047.24-.104.106-.353-.44-1.401-.952-1.637ZM11.474 7.566c-.016.492.189.839.707.968.108.026.223.025.335.037-.014-.101-.017-.205-.044-.303-.129-.477-.29-.947-.39-1.429-.106-.503-.418-.756-.91-.84-.101-.017-.209.007-.313.011.03.104.055.21.095.31.153.388.312.774.52 1.246Zm-3.6-2.525c-.15.009-.395-.035-.434.034-.276.482-.035 1.49.413 1.834.056.043.176.064.23.035.062-.034.125-.14.115-.206a21.462 21.462 0 0 0-.324-1.697Zm-3.78.619c.047.077.079.17.144.229.14.125.296.233.446.348-.063-.163-.097-.348-.2-.483-.094-.123-.114-.573-.39-.094Zm3.808-2.1c.046.106.065.252.147.307.058.038.202-.05.308-.08a2.92 2.92 0 0 0-.455-.228Z" fill="#fff"/></svg>
